icon-themes/sifr_svg/cmd/sc_graphic.svg

<svg viewBox="0 0 16 16" xmlns="http://www.w3.org/2000/svg"><path d="m8 1-7 5 3 3h4zm2 0v4h4v-4zm-4 3.6v2.4h-1.2l-1-1zm5 1.4v3h2v-3zm-8 4v3c0 1.66 2.24 3 5 3s5-1.35 5-3v-3z" fill="#555753"/></svg>

<svg xmlns="http://www.w3.org/2000/svg" viewBox="0 0 16 16">
  <path
     style="fill:#555753"
     d="M 8 1 L 1 6 L 4 9 L 8 9 L 8 1 z M 10 1 L 10 5 L 14 5 L 14 1 L 10 1 z M 6 4.6 L 6 7 L 4.8 7 L 3.8 6 L 6 4.6 z M 11 6 L 11 9 L 13 9 L 13 6 L 11 6 z M 3 10 L 3 13 C 3 14.66 5.24 16 8 16 C 10.76 16 13 14.65 13 13 L 13 10 L 3 10 z "
     />
</svg>
